Dominus_Funeral/22/apps/twitter.svg

<svg xmlns="http://www.w3.org/2000/svg" width="24" height="24"><defs><linearGradient id="a"><stop offset="0"/><stop offset="1" stop-opacity="0"/></linearGradient></defs><path d="M.57 15.25c.4.84.65 1.19 1.05 1.92.43-.25.9-.47 1.32-.75h.03l.02.06c-.41.3-.84.6-1.28.86.73 1.32 1.56 2.96 1.95 3.57a39.63 39.63 0 0 0 .22.32c.21-.32.41-.65.55-1.02.16-.45.41-.75.95-.76.29 0 .57-.15.87-.24.06.16-.09.5.34.4-.1.23-.2.4-.27.59-.1.26.03.38.27.36.27-.03.52-.1.78-.14.17.43.11.5-.32.6-.58.14-1.15.28-1.7.45-.4.13-.52.53-.25.87.16.22.26.54.6.46-.03-.2-.15-.42-.07-.53.2-.3.5-.53.9-.56.16 0 .32 0 .48.02.45.07.87.09 1.22-.3.1-.11.3-.11.39-.14-.15.22-.35.45-.46.72-.1.22-.04.44.27.51.14.04.27.18.46.32l-.05-.25c-.17-.41-.08-.6.36-.68.6-.1 1.24-.07 1.78-.4.05-.02.12-.01.18 0 .83.08 1.67.15 2.5.26.22.03.43.18.69.3l-.36.55.05.07c.18-.07.38-.13.55-.23.17-.1.34-.22.47-.37.09-.09.15-.26.12-.36-.06-.2-.2-.37-.3-.53-.02-.03-.07-.03-.18-.08.5-.1.64.35.97.46l-.21.6c.5-.24.75-.77.55-1.23a.56.56 0 0 0-.39-.27 23.8 23.8 0 0 0-2.01-.1c-.61 0-1.22.04-1.84.06-.2.02-.36-.01-.37-.27 0-.1-.03-.22-.07-.32-.26-.53.09-.9.31-1.32.24-.44.46-.87.67-1.32.42-.84.38-1.75.43-2.65v-.11c-.3-.63 0-1.1.43-1.49.23-.2.22-.54.5-.74.32-.22.57-.56.83-.86.4-.48.81-.97 1.17-1.49l.2-.29.3-.04c.19.03.35.08.5.03.42-.1.84-.24 1.27-.35.2-.04.42-.07.6-.04.68.13 1.35.24 1.97-.13.41-.23.77-.2 1.17.02.27.14.6.2.9.18.25-.02.38 0 .44.24.02.06.08.1.15.2l.26-.55v-.8c-.24-.42-.65-.57-1.1-.69-.82-.22-1.66-.42-2.47-.68-.69-.22-1.27-.15-1.8.36-.33.32-.63.29-.92-.03-.18-.22-.39-.43-.62-.6.04-.47.1-.95.09-1.41-.01-.89-.1-1.77-.2-2.66-.07-.82-.43-1.45-1.3-1.67h-.44c-.44.22-.78.58-1.1.94-.11-.05-.22-.08-.34-.09a.36.36 0 0 0-.15-.1c-.56-.2-1.15-.34-1.73-.45-.97-.16-1.67.42-2.34.98-.93.79-1.81 1.62-2.7 2.44l-2.34 2.2a8.2 8.2 0 0 0-2.84 5.8c-.04.83-.32 1.59-.56 2.37zm8.88 3.61l.06.07c-.17.2-.36.37-.5.57-.08.1-.06.26-.08.4.12 0 .24.03.35 0l1.2-.32c.05.33.12.63.13.94 0 .2-.1.33-.25.42a.18.18 0 0 0-.1-.06l-.04-.01v-.02c-.1-.03-.21-.08-.33-.08h-.05a.17.17 0 0 0-.15.02c-.35.02-.68.06-1.02.07-.14 0-.38 0-.4-.06-.08-.21-.18-.54-.08-.67.38-.45.83-.85 1.26-1.27zm.23 2.23l.06.03.1.03h.02c-.2.05-.4.08-.62.08l.44-.15z" fill="#1a1a1a" stroke-width=".73"/></svg>

<?xml version="1.0" encoding="UTF-8" standalone="no"?>
<svg
   xmlns:dc="http://purl.org/dc/elements/1.1/"
   xmlns:cc="http://creativecommons.org/ns#"
   xmlns:rdf="http://www.w3.org/1999/02/22-rdf-syntax-ns#"
   xmlns:svg="http://www.w3.org/2000/svg"
   xmlns="http://www.w3.org/2000/svg"
   xmlns:sodipodi="http://sodipodi.sourceforge.net/DTD/sodipodi-0.dtd"
   xmlns:inkscape="http://www.inkscape.org/namespaces/inkscape"
   width="24"
   height="24"
   version="1.1"
   id="svg11"
   sodipodi:docname="twitter.svg"
   inkscape:version="0.92.4 (5da689c313, 2019-01-14)">
  <metadata
     id="metadata15">
    <rdf:RDF>
      <cc:Work
         rdf:about="">
        <dc:format>image/svg+xml</dc:format>
        <dc:type
           rdf:resource="http://purl.org/dc/dcmitype/StillImage" />
        <dc:title></dc:title>
      </cc:Work>
    </rdf:RDF>
  </metadata>
  <sodipodi:namedview
     pagecolor="#ffffff"
     bordercolor="#666666"
     borderopacity="1"
     objecttolerance="10"
     gridtolerance="10"
     guidetolerance="10"
     inkscape:pageopacity="0"
     inkscape:pageshadow="2"
     inkscape:window-width="1138"
     inkscape:window-height="480"
     id="namedview13"
     showgrid="false"
     inkscape:zoom="9.8333333"
     inkscape:cx="1.0677966"
     inkscape:cy="12"
     inkscape:window-x="0"
     inkscape:window-y="25"
     inkscape:window-maximized="0"
     inkscape:current-layer="svg11" />
  <defs
     id="defs7">
    <linearGradient
       id="a">
      <stop
         offset="0"
         id="stop2" />
      <stop
         offset="1"
         stop-opacity="0"
         id="stop4" />
    </linearGradient>
  </defs>
  <path
     d="m 0.57,15.25 c 0.4,0.84 0.65,1.19 1.05,1.92 0.43,-0.25 0.9,-0.47 1.32,-0.75 h 0.03 l 0.02,0.06 c -0.41,0.3 -0.84,0.6 -1.28,0.86 0.73,1.32 1.56,2.96 1.95,3.57 a 39.63,39.63 0 0 0 0.22,0.32 c 0.21,-0.32 0.41,-0.65 0.55,-1.02 0.16,-0.45 0.41,-0.75 0.95,-0.76 0.29,0 0.57,-0.15 0.87,-0.24 0.06,0.16 -0.09,0.5 0.34,0.4 -0.1,0.23 -0.2,0.4 -0.27,0.59 -0.1,0.26 0.03,0.38 0.27,0.36 0.27,-0.03 0.52,-0.1 0.78,-0.14 0.17,0.43 0.11,0.5 -0.32,0.6 C 6.47,21.16 5.9,21.3 5.35,21.47 4.95,21.6 4.83,22 5.1,22.34 5.26,22.56 5.36,22.88 5.7,22.8 5.67,22.6 5.55,22.38 5.63,22.27 c 0.2,-0.3 0.5,-0.53 0.9,-0.56 0.16,0 0.32,0 0.48,0.02 0.45,0.07 0.87,0.09 1.22,-0.3 0.1,-0.11 0.3,-0.11 0.39,-0.14 -0.15,0.22 -0.35,0.45 -0.46,0.72 -0.1,0.22 -0.04,0.44 0.27,0.51 0.14,0.04 0.27,0.18 0.46,0.32 L 8.84,22.59 c -0.17,-0.41 -0.08,-0.6 0.36,-0.68 0.6,-0.1 1.24,-0.07 1.78,-0.4 0.05,-0.02 0.12,-0.01 0.18,0 0.83,0.08 1.67,0.15 2.5,0.26 0.22,0.03 0.43,0.18 0.69,0.3 l -0.36,0.55 0.05,0.07 c 0.18,-0.07 0.38,-0.13 0.55,-0.23 0.17,-0.1 0.34,-0.22 0.47,-0.37 0.09,-0.09 0.15,-0.26 0.12,-0.36 -0.06,-0.2 -0.2,-0.37 -0.3,-0.53 -0.02,-0.03 -0.07,-0.03 -0.18,-0.08 0.5,-0.1 0.64,0.35 0.97,0.46 l -0.21,0.6 c 0.5,-0.24 0.75,-0.77 0.55,-1.23 a 0.56,0.56 0 0 0 -0.39,-0.27 23.8,23.8 0 0 0 -2.01,-0.1 c -0.61,0 -1.22,0.04 -1.84,0.06 -0.2,0.02 -0.36,-0.01 -0.37,-0.27 0,-0.1 -0.03,-0.22 -0.07,-0.32 -0.26,-0.53 0.09,-0.9 0.31,-1.32 0.24,-0.44 0.46,-0.87 0.67,-1.32 0.42,-0.84 0.38,-1.75 0.43,-2.65 v -0.11 c -0.3,-0.63 0,-1.1 0.43,-1.49 0.23,-0.2 0.22,-0.54 0.5,-0.74 0.32,-0.22 0.57,-0.56 0.83,-0.86 0.4,-0.48 0.81,-0.97 1.17,-1.49 l 0.2,-0.29 0.3,-0.04 c 0.19,0.03 0.35,0.08 0.5,0.03 0.42,-0.1 0.84,-0.24 1.27,-0.35 0.2,-0.04 0.42,-0.07 0.6,-0.04 0.68,0.13 1.35,0.24 1.97,-0.13 0.41,-0.23 0.77,-0.2 1.17,0.02 0.27,0.14 0.6,0.2 0.9,0.18 0.25,-0.02 0.38,0 0.44,0.24 0.02,0.06 0.08,0.1 0.15,0.2 L 23.43,9.34 V 8.54 C 23.19,8.12 22.78,7.97 22.33,7.85 21.51,7.63 20.67,7.43 19.86,7.17 19.17,6.95 18.59,7.02 18.06,7.53 17.73,7.85 17.43,7.82 17.14,7.5 16.96,7.28 16.75,7.07 16.52,6.9 16.56,6.43 16.62,5.95 16.61,5.49 16.6,4.6 16.51,3.72 16.41,2.83 16.34,2.01 15.98,1.38 15.11,1.16 H 14.67 C 14.23,1.38 13.89,1.74 13.57,2.1 13.46,2.05 13.35,2.02 13.23,2.01 A 0.36,0.36 0 0 0 13.08,1.91 C 12.52,1.71 11.93,1.57 11.35,1.46 10.38,1.3 9.68,1.88 9.01,2.44 8.08,3.23 7.2,4.06 6.31,4.88 l -2.34,2.2 a 8.2,8.2 0 0 0 -2.84,5.8 c -0.04,0.83 -0.32,1.59 -0.56,2.37 z m 8.88,3.61 0.06,0.07 c -0.17,0.2 -0.36,0.37 -0.5,0.57 -0.08,0.1 -0.06,0.26 -0.08,0.4 0.12,0 0.24,0.03 0.35,0 l 1.2,-0.32 c 0.05,0.33 0.12,0.63 0.13,0.94 0,0.2 -0.1,0.33 -0.25,0.42 a 0.18,0.18 0 0 0 -0.1,-0.06 L 10.22,20.87 V 20.85 C 10.12,20.82 10.01,20.77 9.89,20.77 H 9.84 a 0.17,0.17 0 0 0 -0.15,0.02 c -0.35,0.02 -0.68,0.06 -1.02,0.07 -0.14,0 -0.38,0 -0.4,-0.06 C 8.19,20.59 8.09,20.26 8.19,20.13 8.57,19.68 9.02,19.28 9.45,18.86 Z m 0.23,2.23 0.06,0.03 0.1,0.03 h 0.02 c -0.2,0.05 -0.4,0.08 -0.62,0.08 l 0.44,-0.15 z"
     id="path9"
     inkscape:connector-curvature="0"
     style="fill:#1a1a1a;stroke-width:0.73000002" />
</svg>
